assets/illustrations/default/faq.svg

<svg xmlns="http://www.w3.org/2000/svg" width="1079" height="1080" fill="none"><g clip-path="url(#a)"><path fill="url(#b)" d="M77.944 269.372h927.636c14.33 0 26.06 11.731 26.06 26.068v586.792c0 14.338-11.73 26.068-26.06 26.068H77.944c-14.338 0-26.068-11.73-26.068-26.068V295.44c0-14.337 11.73-26.068 26.068-26.068"/><path fill="url(#c)" d="M77.944 269.372h927.636c14.33 0 26.06 11.731 26.06 26.068v586.792c0 14.338-11.73 26.068-26.06 26.068H77.944c-14.338 0-26.068-11.73-26.068-26.068V295.44c0-14.337 11.73-26.068 26.068-26.068"/><path fill="#E0E0E0" fill-rule="evenodd" d="M980.29 369.632H102.317v-4.489H980.29z" clip-rule="evenodd"/><path fill="#666" d="M113.787 336.627c6.335 0 11.47-5.135 11.47-11.469 0-6.335-5.135-11.47-11.47-11.47s-11.47 5.135-11.47 11.47c0 6.334 5.135 11.469 11.47 11.469"/><path fill="#35DE90" d="M160.84 336.627c6.335 0 11.47-5.135 11.47-11.469 0-6.335-5.135-11.47-11.47-11.47s-11.47 5.135-11.47 11.47c0 6.334 5.135 11.469 11.47 11.469"/><path fill="#E0E0E0" d="M207.893 336.627c6.334 0 11.47-5.135 11.47-11.469 0-6.335-5.136-11.47-11.47-11.47s-11.47 5.135-11.47 11.47c0 6.334 5.135 11.469 11.47 11.469"/><path fill="#1968F0" d="M1080 449.243V327.766c0-10.688-8.73-19.421-19.42-19.421H931.542c-10.688 0-19.421 8.733-19.421 19.421v21.506h-26.85c-4.171 0-6.256 5.083-3.258 7.95l30.108 30.109v61.781c0 10.688 8.733 19.421 19.421 19.421h129.038c10.69.131 19.42-8.602 19.42-19.29"/><path fill="#35DE90" d="M1080 647.752V526.274c0-10.688-8.73-19.42-19.42-19.42H931.542c-10.688 0-19.421 8.732-19.421 19.42v21.506h-26.85c-4.171 0-6.256 5.084-3.258 7.951l30.108 30.109v61.781c0 10.688 8.733 19.421 19.421 19.421h129.038c10.69.13 19.42-8.603 19.42-19.29"/><path fill="#0096FA" d="M1080 846.257V724.78c0-10.688-8.73-19.421-19.42-19.421H931.542c-10.688 0-19.421 8.733-19.421 19.421v21.506h-26.85c-4.171 0-6.256 5.084-3.258 7.951l30.108 30.108v61.782c0 10.688 8.733 19.421 19.421 19.421h129.038c10.69.13 19.42-8.603 19.42-19.291"/><path fill="#141414" d="M654.83 618.554H531.267c-13.685 0-24.764-11.079-24.764-24.765V383.681c0-13.686 11.079-24.765 24.764-24.765H654.83c13.686 0 24.765 11.079 24.765 24.765v210.108c0 13.556-11.079 24.765-24.765 24.765"/><path fill="#FCAA73" d="m10.167 444.942 43.142 41.188-30.108-71.688 11.209-8.863 39.363 62.694-17.466-91.239 14.859-4.822 32.715 87.328-2.346-77.553 15.38-2.606 28.414 122.128 27.372-41.578 11.6 3.389-26.98 86.937 7.169 29.326-96.843 25.547-30.109-93.454L0 454.717zM600.087 287.75H456.452l-10.949 10.949v270.195H551.6v-43.273h48.487l10.948-10.948V298.829z"/><path fill="#141414" d="m456.582 287.75-11.079 10.949-.651 123.823.782.521L555.25 313.036l55.785 67.517.131-81.854-11.079-10.949z"/><path fill="url(#d)" d="M514.192 552.21H551.6v-26.59h-43.012z"/><path fill="#F06305" fill-rule="evenodd" d="M568.02 405.744a1.955 1.955 0 0 1 2.576 1.005l24.243 55.264a1.956 1.956 0 0 1-1.791 2.74h-26.719a1.955 1.955 0 1 1 0-3.91h23.727l-23.041-52.523a1.955 1.955 0 0 1 1.005-2.576" clip-rule="evenodd"/><path fill="#F06305" d="m178.045 561.725 37.277 104.924 50.312-79.247c21.245-28.154 54.482-44.707 89.674-44.707l346.705 32.454c39.233 12.904 68.298 46.272 75.598 86.938l44.055 246.082H310.471v-61.521l-34.931 49.921c-38.972 55.525-124.736 41.969-144.548-22.94l-84.07-275.54z"/><path fill="url(#e)" d="m629.022 742.506 28.936 165.663H431.557z"/><path fill="url(#f)" d="M310.34 846.649V704.578l-61.651 216.365s10.819-6.517 18.509-14.468 43.142-59.826 43.142-59.826"/><path fill="url(#g)" d="m215.192 666.649 37.016 105.054-14.989-134.25z"/><path fill="url(#h)" d="m609.732 753.977-114.048-11.47c-7.168-.782-13.555 4.562-14.337 11.6l-6.126 60.348c-.782 7.168 4.562 13.555 11.6 14.337l114.048 11.47c7.169.782 13.555-4.562 14.337-11.601l6.126-60.347c.782-7.169-4.431-13.555-11.6-14.337"/><path fill="#C5D9FB" d="M520.189 817.972c15.548 0 28.153-12.604 28.153-28.153s-12.605-28.153-28.153-28.153c-15.549 0-28.154 12.604-28.154 28.153s12.605 28.153 28.154 28.153"/><path fill="#1968F0" d="M531.2 783.275c.505-5.014-3.556-9.529-9.071-10.085s-10.395 3.058-10.901 8.072c-.505 5.013 3.556 9.529 9.071 10.084 5.515.556 10.396-3.057 10.901-8.071M517.451 817.843c7.821.782 15.25-1.825 20.724-6.517-2.085-8.473-9.254-15.12-18.377-16.032-9.124-.913-17.596 4.17-21.246 11.991 4.301 5.735 10.949 9.775 18.899 10.558M601.521 813.671l-40.406-4.04c-2.346-.261-4.171-2.346-3.91-4.693l1.043-10.818c.26-2.346 2.346-4.171 4.692-3.91l40.406 4.041c2.346.26 4.171 2.346 3.91 4.692l-1.043 10.818c-.261 2.476-2.346 4.171-4.692 3.91"/><path fill="#C5D9FB" d="m585.88 787.734-24.504-2.476c-1.304-.13-2.216-1.304-2.086-2.477l.261-2.346c.13-1.303 1.303-2.216 2.476-2.085l24.504 2.476c1.304.13 2.216 1.304 2.086 2.477l-.261 2.346c0 1.303-1.173 2.216-2.476 2.085"/><path fill="#A3A3A3" d="m579.623 741.073-51.875-5.214c-2.085-.261-4.04 1.303-4.301 3.519l-1.043 10.297c-.261 2.086 1.303 4.041 3.519 4.301l51.876 5.214c2.085.261 4.04-1.304 4.301-3.519l1.043-10.297c.13-2.216-1.434-4.171-3.52-4.301"/><path fill="#141414" d="M433.121 618.554h-63.345c-13.686 0-24.765-11.079-24.765-24.765V383.681c0-13.686 11.079-24.765 24.765-24.765h88.11v234.873c0 13.556-11.079 24.765-24.765 24.765"/><path fill="#072F73" fill-rule="evenodd" d="m445.903 464.368 4.675-6.269 30.736 22.921c6.37 4.593 14.032 7.063 21.8 7.063h37.929v7.821h-37.929c-9.428 0-18.701-2.998-26.403-8.561l-.024-.017z" clip-rule="evenodd"/><path fill="#1968F0" d="M431.296 473.225h26.59v-62.694h-26.59c-7.168 0-13.034 5.866-13.034 13.034v36.626c0 7.299 5.866 13.034 13.034 13.034"/><path fill="#072F73" d="M550.297 498.64h-12.904a3.783 3.783 0 0 1-3.78-3.779v-5.866a3.783 3.783 0 0 1 3.78-3.78h12.904a3.783 3.783 0 0 1 3.78 3.78v5.866a3.783 3.783 0 0 1-3.78 3.779"/><path fill="#C5D9FB" d="M975.467 369.995h-23.983v59.174h23.983z"/><path fill="#0096FA" d="M1009.75 384.594h-23.986v44.576h23.986z"/><path fill="#35DE90" d="M1044.03 352.399h-23.99V429.3h23.99z"/><path fill="#1968F0" d="M992.435 618.35q-9.463-1.195-14.333-6.248-4.777-5.145-4.777-13.597h12.311q0 5.328 3.399 7.901 3.492 2.572 9.28 2.572 11.484 0 11.485-7.258 0-2.48-1.47-3.95-1.47-1.563-4.23-2.573c-1.83-.674-4.53-1.439-8.082-2.297q-7.441-1.653-11.76-3.491-4.227-1.93-6.523-5.237-2.298-3.4-2.297-8.912 0-6.707 4.502-10.657 4.593-3.95 12.495-4.87l-.46-10.014h11.115l-.55 10.014q8.73 1.103 13.05 5.88 4.41 4.686 4.5 12.128h-12.13q-.09-4.227-2.85-6.523c-1.77-1.532-4.38-2.297-7.806-2.297q-4.318 0-6.89 1.47t-2.573 4.685q0 2.298 1.194 3.675 1.195 1.379 3.584 2.297 2.48.828 7.35 2.113c5.201 1.225 9.311 2.42 12.311 3.584q4.5 1.745 7.17 5.053c1.77 2.143 2.66 5.053 2.66 8.728 0 5.084-1.68 9.187-5.05 12.311q-5.055 4.686-14.52 5.605l.55 9.922h-11.115z"/><path fill="#072F73" fill-rule="evenodd" d="M966.344 779.784c0-19.296 15.634-34.931 34.926-34.931 19.3 0 34.94 15.635 34.94 34.931h-5.22c0-16.417-13.3-29.717-29.72-29.717-16.412 0-29.713 13.3-29.713 29.717zM1025.43 824.591c-6.29 3.133-14.78 4.982-24.03 4.982v-5.213c8.62 0 16.29-1.735 21.7-4.435 5.56-2.774 8.02-6.14 8.02-9.121h5.22c0 6.013-4.78 10.729-10.91 13.787" clip-rule="evenodd"/><path fill="#1968F0" d="M958.001 812.368h13.817V778.61h-13.817a10.79 10.79 0 0 0-10.818 10.819v12.252c0 5.865 4.823 10.687 10.818 10.687M1044.81 812.368h-13.82V778.61h13.82c5.99 0 10.82 4.823 10.82 10.819v12.252c0 5.865-4.83 10.687-10.82 10.687"/><path fill="#072F73" d="M1005.05 832.962c3.32 0 6-2.684 6-5.996a5.993 5.993 0 0 0-6-5.995 5.99 5.99 0 0 0-5.991 5.995 5.99 5.99 0 0 0 5.991 5.996"/></g><defs><linearGradient id="b" x1="868.552" x2="-116.798" y1="638.542" y2="488.783" gradientUnits="userSpaceOnUse"><stop stop-color="#fff"/><stop offset=".353" stop-color="#FBFBFB"/><stop offset=".715" stop-color="#EFEFEF"/><stop offset=".99" stop-color="#E0E0E0"/></linearGradient><linearGradient id="c" x1="158.752" x2="1161.62" y1="233.021" y2="1164.8" gradientUnits="userSpaceOnUse"><stop stop-color="#03F" stop-opacity="0"/><stop offset=".418" stop-color="#0033FD" stop-opacity=".418"/><stop offset=".57" stop-color="#0033F6" stop-opacity=".57"/><stop offset=".678" stop-color="#0132EA" stop-opacity=".678"/><stop offset=".766" stop-color="#0232DA" stop-opacity=".766"/><stop offset=".841" stop-color="#0331C3" stop-opacity=".841"/><stop offset=".908" stop-color="#0431A8" stop-opacity=".908"/><stop offset=".967" stop-color="#063089" stop-opacity=".967"/><stop offset="1" stop-color="#072F73"/></linearGradient><linearGradient id="d" x1="505.185" x2="549.347" y1="572.142" y2="513.26" gradientUnits="userSpaceOnUse"><stop stop-color="#F8BC9A" stop-opacity="0"/><stop offset=".162" stop-color="#F8BA96" stop-opacity=".162"/><stop offset=".326" stop-color="#F7B28A" stop-opacity=".326"/><stop offset=".492" stop-color="#F6A675" stop-opacity=".492"/><stop offset=".658" stop-color="#F59559" stop-opacity=".658"/><stop offset=".825" stop-color="#F37F34" stop-opacity=".825"/><stop offset=".99" stop-color="#F06508" stop-opacity=".99"/><stop offset="1" stop-color="#F06305"/></linearGradient><linearGradient id="e" x1="507.757" x2="663.778" y1="801.628" y2="965.557" gradientUnits="userSpaceOnUse"><stop offset=".145" stop-color="#F06305"/><stop offset=".311" stop-color="#E15D05"/><stop offset=".631" stop-color="#B94C04"/><stop offset=".942" stop-color="#8C3A03"/></linearGradient><linearGradient id="f" x1="221.658" x2="382.161" y1="800.888" y2="833.775" gradientUnits="userSpaceOnUse"><stop offset=".338" stop-color="#F06305"/><stop offset=".425" stop-color="#E15D05"/><stop offset=".591" stop-color="#B94C04"/><stop offset=".753" stop-color="#8C3A03"/></linearGradient><linearGradient id="g" x1="247.585" x2="204.893" y1="704.362" y2="707.427" gradientUnits="userSpaceOnUse"><stop offset=".069" stop-color="#F06305"/><stop offset=".257" stop-color="#E15D05"/><stop offset=".617" stop-color="#B94C04"/><stop offset=".967" stop-color="#8C3A03"/></linearGradient><linearGradient id="h" x1="609.399" x2="492.651" y1="846.462" y2="741.767" gradientUnits="userSpaceOnUse"><stop stop-color="#C5D9FB"/><stop offset=".184" stop-color="#D9E4F9"/><stop offset=".407" stop-color="#E9EEF7"/><stop offset=".66" stop-color="#F2F3F5"/><stop offset="1" stop-color="#F5F5F5"/></linearGradient><clipPath id="a"><path fill="#fff" d="M0 0h1079v1080H0z"/></clipPath></defs></svg>

<svg width="1079" height="1080" viewBox="0 0 1079 1080" fill="none" xmlns="http://www.w3.org/2000/svg">
<g clip-path="url(#clip0_10272_1631)">
<path d="M77.9436 269.372H1005.58C1019.91 269.372 1031.64 281.103 1031.64 295.44V882.232C1031.64 896.57 1019.91 908.3 1005.58 908.3H77.9436C63.6061 908.3 51.8755 896.57 51.8755 882.232V295.44C51.8755 281.103 63.6061 269.372 77.9436 269.372Z" fill="url(#paint0_linear_10272_1631)"/>
<path d="M77.9436 269.372H1005.58C1019.91 269.372 1031.64 281.103 1031.64 295.44V882.232C1031.64 896.57 1019.91 908.3 1005.58 908.3H77.9436C63.6061 908.3 51.8755 896.57 51.8755 882.232V295.44C51.8755 281.103 63.6061 269.372 77.9436 269.372Z" fill="url(#paint1_linear_10272_1631)"/>
<path fill-rule="evenodd" clip-rule="evenodd" d="M980.29 369.632H102.317V365.143H980.29V369.632Z" fill="#E0E0E0"/>
<path d="M113.787 336.627C120.122 336.627 125.257 331.492 125.257 325.158C125.257 318.823 120.122 313.688 113.787 313.688C107.452 313.688 102.317 318.823 102.317 325.158C102.317 331.492 107.452 336.627 113.787 336.627Z" fill="#666666"/>
<path d="M160.84 336.627C167.175 336.627 172.31 331.492 172.31 325.158C172.31 318.823 167.175 313.688 160.84 313.688C154.505 313.688 149.37 318.823 149.37 325.158C149.37 331.492 154.505 336.627 160.84 336.627Z" fill="#35DE90"/>
<path d="M207.893 336.627C214.228 336.627 219.363 331.492 219.363 325.158C219.363 318.823 214.228 313.688 207.893 313.688C201.558 313.688 196.423 318.823 196.423 325.158C196.423 331.492 201.558 336.627 207.893 336.627Z" fill="#E0E0E0"/>
<path d="M1080 449.243V327.766C1080 317.078 1071.27 308.345 1060.58 308.345H931.542C920.854 308.345 912.122 317.078 912.122 327.766V349.272H885.271C881.1 349.272 879.015 354.355 882.013 357.222L912.122 387.331V449.112C912.122 459.8 920.854 468.533 931.542 468.533H1060.58C1071.27 468.664 1080 459.931 1080 449.243Z" fill="#1968F0"/>
<path d="M1080 647.752V526.274C1080 515.586 1071.27 506.854 1060.58 506.854H931.542C920.854 506.854 912.122 515.586 912.122 526.274V547.78H885.271C881.1 547.78 879.015 552.864 882.013 555.731L912.122 585.84V647.621C912.122 658.309 920.854 667.042 931.542 667.042H1060.58C1071.27 667.172 1080 658.439 1080 647.752Z" fill="#35DE90"/>
<path d="M1080 846.257V724.78C1080 714.092 1071.27 705.359 1060.58 705.359H931.542C920.854 705.359 912.122 714.092 912.122 724.78V746.286H885.271C881.1 746.286 879.015 751.37 882.013 754.237L912.122 784.345V846.127C912.122 856.815 920.854 865.548 931.542 865.548H1060.58C1071.27 865.678 1080 856.945 1080 846.257Z" fill="#0096FA"/>
<path d="M654.83 618.554H531.267C517.582 618.554 506.503 607.475 506.503 593.789V383.681C506.503 369.995 517.582 358.916 531.267 358.916H654.83C668.516 358.916 679.595 369.995 679.595 383.681V593.789C679.595 607.345 668.516 618.554 654.83 618.554Z" fill="#141414"/>
<path d="M10.1666 444.942L53.3092 486.13L23.2006 414.442L34.4099 405.579L73.7727 468.273L56.3071 377.034L71.1659 372.212L103.881 459.54L101.535 381.987L116.915 379.381L145.329 501.509L172.701 459.931L184.301 463.32L157.321 550.257L164.49 579.583L67.6467 605.13L37.5381 511.676L0 454.717L10.1666 444.942Z" fill="#FCAA73"/>
<path d="M600.087 287.75H456.452L445.503 298.699V568.894H551.6V525.621H600.087C604.388 521.32 606.734 518.974 611.035 514.673V298.829L600.087 287.75Z" fill="#FCAA73"/>
<path d="M456.582 287.75L445.503 298.699L444.852 422.522L445.634 423.043L555.25 313.036L611.035 380.553L611.166 298.699L600.087 287.75H456.582Z" fill="#141414"/>
<path d="M514.193 552.21H551.6V525.62H508.588L514.193 552.21Z" fill="url(#paint2_linear_10272_1631)"/>
<path fill-rule="evenodd" clip-rule="evenodd" d="M568.02 405.744C569.009 405.31 570.162 405.76 570.596 406.749L594.839 462.013C595.104 462.618 595.046 463.315 594.685 463.868C594.324 464.42 593.709 464.753 593.048 464.753H566.329C565.249 464.753 564.374 463.878 564.374 462.798C564.374 461.719 565.249 460.843 566.329 460.843H590.056L567.015 408.32C566.581 407.331 567.031 406.178 568.02 405.744Z" fill="#F06305"/>
<path d="M178.045 561.725L215.322 666.649L265.634 587.402C286.879 559.248 320.116 542.695 355.308 542.695L702.013 575.149C741.245 588.053 770.311 621.421 777.61 662.087L821.666 908.169H310.471V846.648L275.539 896.569C236.568 952.094 150.804 938.538 130.992 873.629L46.9225 598.089L178.045 561.725Z" fill="#F06305"/>
<path d="M629.023 742.506L657.958 908.169H431.557L629.023 742.506Z" fill="url(#paint3_linear_10272_1631)"/>
<path d="M310.34 846.649V704.578L248.689 920.943C248.689 920.943 259.508 914.426 267.198 906.475C274.888 898.524 310.34 846.649 310.34 846.649Z" fill="url(#paint4_linear_10272_1631)"/>
<path d="M215.192 666.649L252.209 771.703L237.219 637.453L215.192 666.649Z" fill="url(#paint5_linear_10272_1631)"/>
<path d="M609.732 753.977L495.684 742.507C488.516 741.725 482.129 747.069 481.347 754.107L475.221 814.455C474.439 821.623 479.783 828.01 486.821 828.792L600.869 840.262C608.038 841.044 614.424 835.7 615.206 828.661L621.332 768.314C622.114 761.145 616.901 754.759 609.732 753.977Z" fill="url(#paint6_linear_10272_1631)"/>
<path d="M520.188 817.972C535.737 817.972 548.342 805.368 548.342 789.819C548.342 774.27 535.737 761.666 520.188 761.666C504.64 761.666 492.035 774.27 492.035 789.819C492.035 805.368 504.64 817.972 520.188 817.972Z" fill="#C5D9FB"/>
<path d="M531.2 783.275C531.705 778.261 527.644 773.746 522.129 773.19C516.614 772.634 511.733 776.248 511.228 781.262C510.722 786.275 514.784 790.791 520.299 791.346C525.814 791.902 530.694 788.289 531.2 783.275Z" fill="#1968F0"/>
<path d="M517.451 817.843C525.272 818.625 532.701 816.018 538.175 811.326C536.09 802.853 528.921 796.206 519.797 795.294C510.674 794.381 502.201 799.464 498.552 807.285C502.853 813.02 509.5 817.06 517.451 817.843Z" fill="#1968F0"/>
<path d="M601.521 813.671L561.115 809.631C558.769 809.37 556.944 807.285 557.205 804.938L558.248 794.12C558.508 791.774 560.594 789.949 562.94 790.21L603.346 794.251C605.692 794.511 607.516 796.597 607.256 798.943L606.213 809.761C605.952 812.237 603.867 813.932 601.521 813.671Z" fill="#1968F0"/>
<path d="M585.88 787.734L561.376 785.258C560.072 785.128 559.16 783.954 559.29 782.781L559.551 780.435C559.681 779.132 560.854 778.219 562.027 778.35L586.531 780.826C587.835 780.956 588.747 782.13 588.617 783.303L588.356 785.649C588.356 786.952 587.183 787.865 585.88 787.734Z" fill="#C5D9FB"/>
<path d="M579.623 741.073L527.748 735.859C525.663 735.598 523.708 737.162 523.447 739.378L522.404 749.675C522.143 751.761 523.707 753.716 525.923 753.976L577.799 759.19C579.884 759.451 581.839 757.886 582.1 755.671L583.143 745.374C583.273 743.158 581.709 741.203 579.623 741.073Z" fill="#A3A3A3"/>
<path d="M433.121 618.554H369.776C356.09 618.554 345.011 607.475 345.011 593.789V383.681C345.011 369.995 356.09 358.916 369.776 358.916H457.886V593.789C457.886 607.345 446.807 618.554 433.121 618.554Z" fill="#141414"/>
<path fill-rule="evenodd" clip-rule="evenodd" d="M445.903 464.368L450.578 458.099L481.314 481.02C487.684 485.613 495.346 488.083 503.114 488.083H541.043V495.904H503.114C493.686 495.904 484.413 492.906 476.711 487.343L476.687 487.326L445.903 464.368Z" fill="#072F73"/>
<path d="M431.296 473.225H457.886V410.531H431.296C424.127 410.531 418.262 416.397 418.262 423.565V460.191C418.262 467.49 424.127 473.225 431.296 473.225Z" fill="#1968F0"/>
<path d="M550.297 498.64H537.393C535.308 498.64 533.613 496.946 533.613 494.861V488.995C533.613 486.91 535.308 485.215 537.393 485.215H550.297C552.382 485.215 554.077 486.91 554.077 488.995V494.861C554.077 496.946 552.382 498.64 550.297 498.64Z" fill="#072F73"/>
<path d="M975.467 369.995H951.484V429.169H975.467V369.995Z" fill="#C5D9FB"/>
<path d="M1009.75 384.594H985.764V429.17H1009.75V384.594Z" fill="#0096FA"/>
<path d="M1044.03 352.399H1020.04V429.3H1044.03V352.399Z" fill="#35DE90"/>
<path d="M992.435 618.35C986.126 617.553 981.348 615.471 978.102 612.102C974.917 608.672 973.325 604.14 973.325 598.505H985.636C985.636 602.057 986.769 604.691 989.035 606.406C991.363 608.121 994.456 608.978 998.315 608.978C1005.97 608.978 1009.8 606.559 1009.8 601.72C1009.8 600.067 1009.31 598.75 1008.33 597.77C1007.35 596.728 1005.94 595.871 1004.1 595.197C1002.27 594.523 999.57 593.758 996.018 592.9C991.057 591.798 987.137 590.634 984.258 589.409C981.44 588.123 979.266 586.377 977.735 584.172C976.203 581.906 975.438 578.935 975.438 575.26C975.438 570.789 976.938 567.236 979.94 564.603C983.002 561.969 987.167 560.346 992.435 559.733L991.975 549.719H1003.09L1002.54 559.733C1008.36 560.468 1012.71 562.428 1015.59 565.613C1018.53 568.737 1020.03 572.78 1020.09 577.741H1007.96C1007.9 574.923 1006.95 572.749 1005.11 571.218C1003.34 569.686 1000.73 568.921 997.304 568.921C994.425 568.921 992.128 569.411 990.413 570.391C988.698 571.371 987.841 572.933 987.841 575.076C987.841 576.608 988.239 577.833 989.035 578.751C989.832 579.67 991.026 580.436 992.618 581.048C994.272 581.6 996.722 582.304 999.968 583.161C1005.17 584.386 1009.28 585.581 1012.28 586.745C1015.28 587.908 1017.67 589.593 1019.45 591.798C1021.22 593.941 1022.11 596.851 1022.11 600.526C1022.11 605.61 1020.43 609.713 1017.06 612.837C1013.69 615.961 1008.85 617.829 1002.54 618.442L1003.09 628.364H991.975L992.435 618.35Z" fill="#1968F0"/>
<path fill-rule="evenodd" clip-rule="evenodd" d="M966.343 779.784C966.343 760.488 981.978 744.853 1001.27 744.853C1020.57 744.853 1036.21 760.488 1036.21 779.784H1030.99C1030.99 763.367 1017.69 750.067 1001.27 750.067C984.857 750.067 971.557 763.367 971.557 779.784H966.343Z" fill="#072F73"/>
<path fill-rule="evenodd" clip-rule="evenodd" d="M1025.43 824.591C1019.14 827.724 1010.65 829.573 1001.4 829.573V824.36C1010.02 824.36 1017.69 822.625 1023.1 819.925C1028.66 817.151 1031.12 813.785 1031.12 810.804H1036.34C1036.34 816.817 1031.56 821.533 1025.43 824.591Z" fill="#072F73"/>
<path d="M958.001 812.368H971.817V778.61H958.001C952.006 778.61 947.183 783.433 947.183 789.429V801.681C947.183 807.546 952.006 812.368 958.001 812.368Z" fill="#1968F0"/>
<path d="M1044.81 812.368H1030.99V778.61H1044.81C1050.8 778.61 1055.63 783.433 1055.63 789.429V801.681C1055.63 807.546 1050.8 812.368 1044.81 812.368Z" fill="#1968F0"/>
<path d="M1005.05 832.962C1008.37 832.962 1011.05 830.278 1011.05 826.966C1011.05 823.655 1008.37 820.971 1005.05 820.971C1001.74 820.971 999.059 823.655 999.059 826.966C999.059 830.278 1001.74 832.962 1005.05 832.962Z" fill="#072F73"/>
</g>
<defs>
<linearGradient id="paint0_linear_10272_1631" x1="868.552" y1="638.542" x2="-116.798" y2="488.783" gradientUnits="userSpaceOnUse">
<stop stop-color="white"/>
<stop offset="0.3535" stop-color="#FBFBFB"/>
<stop offset="0.7152" stop-color="#EFEFEF"/>
<stop offset="0.9901" stop-color="#E0E0E0"/>
</linearGradient>
<linearGradient id="paint1_linear_10272_1631" x1="158.752" y1="233.021" x2="1161.62" y2="1164.8" gradientUnits="userSpaceOnUse">
<stop stop-color="#0033FF" stop-opacity="0"/>
<stop offset="0.4181" stop-color="#0033FD" stop-opacity="0.4181"/>
<stop offset="0.5698" stop-color="#0033F6" stop-opacity="0.5698"/>
<stop offset="0.6782" stop-color="#0132EA" stop-opacity="0.6782"/>
<stop offset="0.7659" stop-color="#0232DA" stop-opacity="0.7659"/>
<stop offset="0.8411" stop-color="#0331C3" stop-opacity="0.8411"/>
<stop offset="0.9077" stop-color="#0431A8" stop-opacity="0.9077"/>
<stop offset="0.9665" stop-color="#063089" stop-opacity="0.9665"/>
<stop offset="1" stop-color="#072F73"/>
</linearGradient>
<linearGradient id="paint2_linear_10272_1631" x1="505.185" y1="572.142" x2="549.347" y2="513.26" gradientUnits="userSpaceOnUse">
<stop stop-color="#F8BC9A" stop-opacity="0"/>
<stop offset="0.1621" stop-color="#F8BA96" stop-opacity="0.1621"/>
<stop offset="0.3263" stop-color="#F7B28A" stop-opacity="0.3263"/>
<stop offset="0.4917" stop-color="#F6A675" stop-opacity="0.4917"/>
<stop offset="0.6578" stop-color="#F59559" stop-opacity="0.6578"/>
<stop offset="0.8246" stop-color="#F37F34" stop-opacity="0.8246"/>
<stop offset="0.9897" stop-color="#F06508" stop-opacity="0.9897"/>
<stop offset="1" stop-color="#F06305"/>
</linearGradient>
<linearGradient id="paint3_linear_10272_1631" x1="507.757" y1="801.628" x2="663.778" y2="965.557" gradientUnits="userSpaceOnUse">
<stop offset="0.1453" stop-color="#F06305"/>
<stop offset="0.3114" stop-color="#E15D05"/>
<stop offset="0.6314" stop-color="#B94C04"/>
<stop offset="0.9417" stop-color="#8C3A03"/>
</linearGradient>
<linearGradient id="paint4_linear_10272_1631" x1="221.658" y1="800.888" x2="382.161" y2="833.775" gradientUnits="userSpaceOnUse">
<stop offset="0.3384" stop-color="#F06305"/>
<stop offset="0.4249" stop-color="#E15D05"/>
<stop offset="0.5914" stop-color="#B94C04"/>
<stop offset="0.7528" stop-color="#8C3A03"/>
</linearGradient>
<linearGradient id="paint5_linear_10272_1631" x1="247.585" y1="704.362" x2="204.893" y2="707.427" gradientUnits="userSpaceOnUse">
<stop offset="0.069479" stop-color="#F06305"/>
<stop offset="0.2567" stop-color="#E15D05"/>
<stop offset="0.6172" stop-color="#B94C04"/>
<stop offset="0.9668" stop-color="#8C3A03"/>
</linearGradient>
<linearGradient id="paint6_linear_10272_1631" x1="609.399" y1="846.462" x2="492.651" y2="741.767" gradientUnits="userSpaceOnUse">
<stop stop-color="#C5D9FB"/>
<stop offset="0.1836" stop-color="#D9E4F9"/>
<stop offset="0.4073" stop-color="#E9EEF7"/>
<stop offset="0.66" stop-color="#F2F3F5"/>
<stop offset="1" stop-color="#F5F5F5"/>
</linearGradient>
<clipPath id="clip0_10272_1631">
<rect width="1079" height="1080" fill="white"/>
</clipPath>
</defs>
</svg>
